X:1
T:Alleluia
T:Alleluia
T: W A Mozart
C:W A Mozart
%%score 1 2 3
L:1/8
M:2/4
K:Bb
V:1 treble nm="Flute" snm="Fl."
V:2 treble transpose=-2 nm="B♭ Clarinet" snm="B♭ Cl."
V:3 treble transpose=-2 nm="B♭ Clarinet" snm="B♭ Cl."
V:1
!p! d3 e | ed cB | B2 B2 | =B2 c2 | c2 de | ed cB | dc BA | F2 z2 |!f! d3 e | ed cB | f2 d2 | %11
 d2 e2 | ef/g/ fe | ed Bd | dc BA | F2 z2 |!f! (5:4:5c/d/c/=B/c/ (5:4:5c/d/c/=B/c/ |!p! _B2 =e2 | %18
 f3 g/a/ | g2 z2 |!f! (5:4:5c/d/c/=B/c/ (5:4:5c/d/c/=B/c/ |!p! _B2 =e2 | f3 g/a/ | g2 z2 | %24
!f!!>(! Tf'3/2=e'/4f'/4 z e'!>)! | z d' z ^c' |!f!!>(! Td'3/2^c'/4d'/4 z c'!>)! | z b z a | %28
 ga/b/ ag | c'a f2- | f2 g=e | f2 z2 | f4- | fg/f/ f/e/d/e/ | d/e/f/g/ f/g/a/b/ | %35
 a/b/c'/b/ a/g/f/e/ | d/e/f/g/ f/g/a/b/ | a/b/c'/b/ a/g/f/e/ | de/f/ g/a/b/c'/ | d'2 z d | c4 | %41
 Tg4 | f2 z2 | z4 | z4 | cd cd | c2 B2 | z4 | c4 | c4 | F2 z2 | z4 | z4 | cd cd | c2 B2 | z4 | c4 | %57
 c4 | F2 z2 | F2 z2 | F2 z2 | G2 z2 | A4 | G2 B2 | f2 g2 | f2 =e2 | c2 f2 | f2 =e2 |!ff! A4- | A4 | %70
 d4- | d4 | d4- | d4 | A4 | G4 | A2 F2 | F2 z2 |!p! f4- | f2 b/a/g/f/ | =e/f/e/f/ g2 | %81
 =e/f/e/f/ g2 | g4- | g2 c'/b/a/g/ | f/g/f/g/ a2 | a/b/c'/b/ a/g/f/e/ | d/e/f/g/ f/g/a/b/ | %87
 a/b/c'/b/ a/g/f/e/ | d/e/f/g/ f/g/a/b/ | a/b/c'/b/ a/g/f/e/ | d/e/d/c/"_cresc." d/B/c/B/ | e4 | %92
 d/e/d/c/ d/B/c/B/ | g4 |!<(! f/g/f/e/ f/d/e/d/!<)! | b4- | b!f! a2 g- | g f2 e- | e d2 b- | %99
 b f2 d | d2 c2 | f2 z2 | z4 | z4 | z4 | z4 | z4 | z4 | z4 | z4 |!p! f3 g | gf ed | d2 d2 | d2 e2 | %114
 e2 fg | gf ed | fe dc | BB BB |!f! b3 a | ag f2 | g3 f | fe d2 | b4 | c4 | f4 |!<(! B2 df!<)! | %126
!ff! b3 a | ag f2 | g3 f | fe d2 | b4 | c4 | f4 | d'4 | f4 | c4 | f4 | B2 b/c'/d'/c'/ | %138
 b2 d/e/f/e/ | d2 d2 | d2 d2 | d2 B2 | B2 b2 | b2 z2 |] %144
V:2
[K:C]!p! g3 a | ag fe | e2 e2 | e2 f2 | f2 ga | ag fe | gf ed | c2 z2 |!f! g3 a | ag fe | c'2 _b2 | %11
 ^g2 a2 | ab/c'/ ba | a=g eg | gf ed | c2 z2 |!f! B2 B2 |!p! ^F2 A2 | B2 d2 | ^f2 z2 |!f! B2 B2 | %21
!p! ^F2 A2 | B2 d2 | ^F2 z2 |!f!!>(! G4-!>)! | G4 |!f!!>(! G4-!>)! | G4 | e4 | d4 | B2 c2 | B2 z2 | %32
 BB BB | cc dd | G2 c2 | B2 F2 | G2 c2 | B2 F2 | G2 z2 | z2 G2 | G4 | GA ^Fc | B2 z2 | BG Bc | %44
 cB AG | ^G2 G2 | ^G2 A2 | c3 e | ed cB | B2 cA | B2 z2 | BG Bc | cB AG | ^G2 G2 | ^G2 A2 | c3 e | %56
 ed cB | B2 cA | B2 z2 | F2 z2 | E2 z2 | G2 ^C2 | DD DD | DD DD | B,2 C2 | D2 C2 | B,2 C2 | D2 D2 | %68
 G,2 B,D | G2 z2 | E2 GB | e2 z2 | C2 C2 | ^C2 C2 | D4 | D4 | D2 G2 | G2 z2 |!p! BB BB | BB BB | %80
 cc cc | cc cc | cc cc | dd dd | dd dd | dd dd | cc cc | dB dB | cc cc | dB dd | GG"_cresc." EE | %91
 A4 | GG EE | F4 |!<(! E4!<)! | e4- | e!f! g2 f- | f e2 d- | d c2 e- | e e2 c | c2 B2 | B2 z2 | %102
!mp! G3 A | AG FE | E2 E2 | E2 F2 | F2 GA | AG FE | GF ED | C2 z2 |!p! e3 f | fe dc | c2 c2 | %113
 ^c2 d2 | d2 ef | fe dc | ed cB | G2 z2 |!f! cc cc | cc cc | cc cc | cc cc | e4 | c4 | d4 | %125
!<(! E2 z2!<)! |!ff! cc cc | cc cc | cc cc | cc cc | e4 | c4 | B4 | G4 | c4 | c4 | B4 | %137
 E2 e/f/g/f/ | e2 z2 | z2 z2 | E/F/G/F/ E/F/G/F/ | E/F/G/F/ E/F/G/F/ | E2 g2 | g2 z2 |] %144
V:3
[K:C]!p! c2 c2 | C2 c2 | G2 C2 | B,4 | B,4 | c2 A2 | F2 G2 | E2 z2 |!f! c2 c2 | C2 c2 | e2 c2 | %11
 c4 | c4 | c2 A2 | F2 G2 | E2 z2 |!f! G2 G2 |!p! D2 D2 | G4 | DD ^FA |!f! G2 G2 |!p! D2 D2 | G4 | %23
 D2 z2 |!f!!>(! E2 D2!>)! | C2 B,2 |!f!!>(! C2 B,2!>)! | A,2 G,2 | C4 | D4 | D4 | G,G, B,D | %32
 GG GG | AA BB | C2 E2 | D2 B,2 | C2 E2 | D2 B,2 | C2 z2 | z2 ^C2 | DD DD | DD DD | G2 z2 | d3 e | %44
 ed cB | B2 B2 | B2 c2 | A3 c | cB AG | G2 A^F | GD GB | d3 e | ed cB | B2 B2 | B2 c2 | A3 c | %56
 cB AG | G2 A^F | G/A/G/A/ B/c/B/c/ | B/c/d/c/ B/A/G/F/ | EF/G/ A/B/c/d/ | e2 z E | D4 | TA4 | %64
 d2 c2 | B2 A2 | G2 e2 | d2 ^F2 |!ff!!ff! G4- | G4 | G4- | G4 | G4- | G4 | G4 | ^F4 | G2 G,2 | %77
 G,2 z2 |!p! GG GG | GG GG | AA AA | AA AA | ^FF FF | ^FF FF | BB GG | GG GG | GG GG | GG GG | %88
 GG GG | GG GB | CC"_cresc." CC | CC CC | CC CC | CC CC |!<(! CC CC!<)! | CC CC |!f! C2 C2 | %97
 B,2 B,2 | C2 C2 | C2 C2 | G2 G2 | G2 z2 |!mp! E3 F | FE DC | C2 C2 | ^C2 D2 | D2 EF | FE DC | %108
 ED CB, | C2 z2 |!p! c2 c2 | c2 C2 | G2 G2 | B4 | B4 | c2 A2 | F2 G2 | E2 z2 |!f! A3 G | GF E2 | %120
 F3 E | ED C2 | A4 | F4 | B4 |!<(! C2 z2!<)! |!ff! A3 G | GF E2 | F3 E | ED C2 | A4 | F4 | G4 | %133
 C4 | E4 | F4 | G4 | C2 z2 | c2 c/d/e/d/ | c2 z2 | C/D/E/D/ C/D/E/D/ | C/D/E/D/ C/D/E/D/ | C2 e2 | %143
 e2 z2 |] %144

